!!!COM: Music21
!!!OTL: Pasodoble
!!!OMV: pezas_pasodobles_pasodoble-10_pasodoble-partitura.musicxml
**kern
*I"Bagpipes
*I'Bag
*clefG^2
*k[]
*M2/4
=1
!LO:TX:a:t=Allegro
*MM130
!LO:TX:a:t=[quarter]=130
4.r
8gg
=||
8eeL
8ggJ
8ggL
16aaL
16bbJJ
=
4.ccc
8ddd
=
8dddL
8cccJ
8bbL
16aaL
16ggJJ
=
4.ee
8gg
=
8eeL
8ggJ
8ggL
16aaL
16bbJJ
=
4.ccc
8ddd
=
8dddL
8cccJ
8bbL
16aaL
16ggJJ
=
4ee
8ggL
8aaJ
=
4.ff
8gg
!!linebreak:original
=
8aaL
8bbJ
8cccL
8ggJ
!!linebreak:original
=
8ee
4cc
8gg
=||
8eeL
16ccL
16ddJJ
16eeLL
16ff
16gg
16ffJJ
=
8ee
4cc
8gg
=
8eeL
16ccL
16ddJJ
16eeLL
16ff
16gg
16eeJJ
=
4.ff
8aa
=
8aaL
8ggJ
8eeL
8aaJ
=
8ffL
8ddJ
16eeLL
16ff
16ee
16ddJJ
=
4.cc
8gg
!!linebreak:original
=||
8eeL
16ccL
16ddJJ
16eeLL
16ff
16gg
16ffJJ
=
8ee
4cc
8gg
=
8eeL
16ccL
16ddJJ
16eeLL
16ff
16gg
16eeJJ
=
4.ff
8aa
=
8aaL
8ggJ
8eeL
8aaJ
=
8ffL
8ddJ
16eeLL
16ff
16ee
16ddJJ
!!linebreak:original
=
8.ccL
16eeJk
16ccLL
16ee
16cc
16eeJJ
=||
8.ddL
16ffJk
16eeLL
16ff
16ee
16ffJJ
=
8.ggL
16aaJk
16bbLL
16ccc
16bb
16aaJJ
=
16ggLL
16aa
16gg
16ffJJ
8eeL
8ccJ
=
16ggLL
16aa
16gg
16ffJJ
16eeLL
16ff
16ee
16ddJJ
=
8.ccL
16eeJk
16ccLL
16ee
16cc
16eeJJ
=
8.ddL
16ffJk
16eeLL
16ff
16ee
16ffJJ
!!linebreak:original
=
8.ggL
16aaJk
16bbLL
16ccc
16bb
16aaJJ
=
16ggLL
16aa
16gg
16ffJJ
8eeL
8ccJ
=
16ggLL
16aa
16gg
16ffJJ
16eeLL
16ff
16ee
16ddJJ
=
4.cc
8gg
==
*-
